X: 1
T:Gan Ainm
M:4/4
L:1/4
S:Dermot Byrne and Ciaran Tourish, Donegal (accordion and fiddle)
R:Highland
N:As played, but a bit hard to hear at times
D:"River of Sound"
H:Second part is actually in 'A' but only one 'g' so just make it an
H:accidental
Z:Bernie Stocks
K:D
cB|:AF dF EA, CE|FD dD cD BD|\
AF dF EA, CE|FA (3.G.F.E (3.D.F.A (3.d.c.B|!
AF dF EA, CE|FD dD cD BD|\
AF dF EA, CE|FA (3.B.c.d A^G Af:|!
ec ac (3.e.f.e ef|ec ac {a}fe fa|\
ec ac (3.e.f.e e2|(3.d.e.d (3.c.d.c Bc df|!
ec ac (3.e.f.e ef|ec ac {a}fe f^g|\
af ec af ec|(3.d.e.d  (3.c.d.c Bd cB||!
